src/img/crosshair-on.svg

<svg fill="none" height="14" viewBox="0 0 15 14" width="15" xmlns="http://www.w3.org/2000/svg" xmlns:xlink="http://www.w3.org/1999/xlink"><mask id="a" height="14" maskUnits="userSpaceOnUse" width="14" x="0" y="0"><path clip-rule="evenodd" d="m.707764 6.99998c0-3.55833 2.858336-6.416667 6.416666-6.416667 3.55837 0 6.41667 2.858337 6.41667 6.416667 0 3.55832-2.8583 6.41662-6.41667 6.41662-3.55833 0-6.416666-2.8583-6.416666-6.41662zm6.999996 3.50002v1.6916c2.45004-.2333 4.37504-2.1583 4.60834-4.60829h-1.6917c-.35 0-.5833-.23333-.5833-.58333s.2333-.58333.5833-.58333h1.6917c-.2333-2.39167-2.1583-4.31667-4.60834-4.60834v1.69167c0 .35-.23333.58333-.58333.58333s-.58333-.23333-.58333-.58333v-1.69167c-2.45.23334-4.375 2.15834-4.60834 4.60834h1.69167c.35 0 .58333.23333.58333.58333s-.23333.58333-.58333.58333h-1.69167c.23334 2.39167 2.15834 4.31669 4.60834 4.60829v-1.6916c0-.35.23333-.58335.58333-.58335s.58333.23335.58333.58335z" fill="#fff" fill-rule="evenodd"/></mask><circle cx="7.12451" cy="7" fill="#333" r="2.1875"/><path clip-rule="evenodd" d="m.707764 6.99998c0-3.55833 2.858336-6.416667 6.416666-6.416667 3.55837 0 6.41667 2.858337 6.41667 6.416667 0 3.55832-2.8583 6.41662-6.41667 6.41662-3.55833 0-6.416666-2.8583-6.416666-6.41662zm6.999996 3.50002v1.6916c2.45004-.2333 4.37504-2.1583 4.60834-4.60829h-1.6917c-.35 0-.5833-.23333-.5833-.58333s.2333-.58333.5833-.58333h1.6917c-.2333-2.39167-2.1583-4.31667-4.60834-4.60834v1.69167c0 .35-.23333.58333-.58333.58333s-.58333-.23333-.58333-.58333v-1.69167c-2.45.23334-4.375 2.15834-4.60834 4.60834h1.69167c.35 0 .58333.23333.58333.58333s-.23333.58333-.58333.58333h-1.69167c.23334 2.39167 2.15834 4.31669 4.60834 4.60829v-1.6916c0-.35.23333-.58335.58333-.58335s.58333.23335.58333.58335z" fill="#333" fill-rule="evenodd"/><g mask="url(#a)"><path d="m.124512 0h14v14h-14z" fill="#333"/></g></svg>

<svg width="15" height="14" viewBox="0 0 15 14" fill="none" 
  xmlns="http://www.w3.org/2000/svg">
  <circle cx="7.12451" cy="7" r="2.1875" fill="#333333"/>
  <path fill-rule="evenodd" clip-rule="evenodd" d="M0.707764 6.99998C0.707764 3.44165 3.5661 0.583313 7.12443 0.583313C10.6828 0.583313 13.5411 3.44165 13.5411 6.99998C13.5411 10.5583 10.6828 13.4166 7.12443 13.4166C3.5661 13.4166 0.707764 10.5583 0.707764 6.99998ZM7.70776 10.5V12.1916C10.1578 11.9583 12.0828 10.0333 12.3161 7.58331H10.6244C10.2744 7.58331 10.0411 7.34998 10.0411 6.99998C10.0411 6.64998 10.2744 6.41665 10.6244 6.41665H12.3161C12.0828 4.02498 10.1578 2.09998 7.70776 1.80831V3.49998C7.70776 3.84998 7.47443 4.08331 7.12443 4.08331C6.77443 4.08331 6.5411 3.84998 6.5411 3.49998V1.80831C4.0911 2.04165 2.1661 3.96665 1.93276 6.41665H3.62443C3.97443 6.41665 4.20776 6.64998 4.20776 6.99998C4.20776 7.34998 3.97443 7.58331 3.62443 7.58331H1.93276C2.1661 9.97498 4.0911 11.9 6.5411 12.1916V10.5C6.5411 10.15 6.77443 9.91665 7.12443 9.91665C7.47443 9.91665 7.70776 10.15 7.70776 10.5Z" fill="#333333"/>
  <mask id="mask0" mask-type="alpha" maskUnits="userSpaceOnUse" x="0" y="0" width="14" height="14">
    <path fill-rule="evenodd" clip-rule="evenodd" d="M0.707764 6.99998C0.707764 3.44165 3.5661 0.583313 7.12443 0.583313C10.6828 0.583313 13.5411 3.44165 13.5411 6.99998C13.5411 10.5583 10.6828 13.4166 7.12443 13.4166C3.5661 13.4166 0.707764 10.5583 0.707764 6.99998ZM7.70776 10.5V12.1916C10.1578 11.9583 12.0828 10.0333 12.3161 7.58331H10.6244C10.2744 7.58331 10.0411 7.34998 10.0411 6.99998C10.0411 6.64998 10.2744 6.41665 10.6244 6.41665H12.3161C12.0828 4.02498 10.1578 2.09998 7.70776 1.80831V3.49998C7.70776 3.84998 7.47443 4.08331 7.12443 4.08331C6.77443 4.08331 6.5411 3.84998 6.5411 3.49998V1.80831C4.0911 2.04165 2.1661 3.96665 1.93276 6.41665H3.62443C3.97443 6.41665 4.20776 6.64998 4.20776 6.99998C4.20776 7.34998 3.97443 7.58331 3.62443 7.58331H1.93276C2.1661 9.97498 4.0911 11.9 6.5411 12.1916V10.5C6.5411 10.15 6.77443 9.91665 7.12443 9.91665C7.47443 9.91665 7.70776 10.15 7.70776 10.5Z" fill="white"/>
  </mask>
  <g mask="url(#mask0)">
    <rect x="0.124512" width="14" height="14" fill="#333333"/>
  </g>
</svg>
